svg/apache-beam.svg

<svg viewBox="0 0 20 20" xmlns="http://www.w3.org/2000/svg">
<path d="M20 0H0V20H20V0Z" fill="#FF6D00"/>
<path d="M15.948 13.32C15.962 14.019 15.837 14.701 15.577 15.35C15.338 15.918 14.965 16.425 14.496 16.816C13.987 17.231 13.409 17.529 12.782 17.702C12.073 17.899 11.345 18 10.613 18C10.577 18 10.54 18 10.504 17.998H4.75V17.346L4.764 17.34L4.75 2.654V2H10.237C10.969 2 11.699 2.087 12.411 2.258C13.03 2.403 13.607 2.669 14.125 3.045C14.589 3.393 14.962 3.861 15.2 4.396C15.459 5.004 15.589 5.677 15.573 6.339C15.581 7.05 15.38 7.736 14.989 8.324C14.612 8.894 14.058 9.345 13.342 9.665C13.743 9.778 14.119 9.955 14.463 10.195C14.789 10.425 15.069 10.709 15.296 11.039C15.517 11.365 15.683 11.726 15.787 12.108C15.895 12.503 15.95 12.91 15.948 13.32Z" fill="white"/>
</svg>

<svg xmlns="http://www.w3.org/2000/svg" viewBox="0 0 20 20">
  <path fill="#FF6D00" d="M20 0H0v20h20V0Z"/>
  <path fill="#fff" d="M15.95 13.32c.01.7-.11 1.38-.37 2.03a3.87 3.87 0 0 1-1.08 1.47c-.51.41-1.1.7-1.72.88-.7.2-1.43.3-2.17.3H4.75v-.65l.01-.01-.01-14.69V2h5.49c.73 0 1.46.09 2.17.26.62.14 1.2.4 1.71.79.47.34.84.81 1.08 1.35.26.6.39 1.28.37 1.94a3.5 3.5 0 0 1-2.23 3.32c.4.12.78.3 1.12.54a3.36 3.36 0 0 1 1.33 1.9c.1.4.16.81.16 1.22Z"/>
</svg>
